icons/evolvere-blue-folders-flat-vivid-dark-fallback/apps/64/firewall.svg

<?xml version="1.0" encoding="UTF-8" standalone="no"?>
<!-- Created with Inkscape (http://www.inkscape.org/) -->

<svg
   xmlns:dc="http://purl.org/dc/elements/1.1/"
   xmlns:cc="http://creativecommons.org/ns#"
   xmlns:rdf="http://www.w3.org/1999/02/22-rdf-syntax-ns#"
   xmlns:svg="http://www.w3.org/2000/svg"
   xmlns="http://www.w3.org/2000/svg"
   xmlns:sodipodi="http://sodipodi.sourceforge.net/DTD/sodipodi-0.dtd"
   xmlns:inkscape="http://www.inkscape.org/namespaces/inkscape"
   width="64"
   height="64"
   id="svg13094"
   version="1.1"
   inkscape:version="0.91+devel r"
   sodipodi:docname="firewall.svg">
  <sodipodi:namedview
     id="base"
     pagecolor="#ffffff"
     bordercolor="#666666"
     borderopacity="1.0"
     inkscape:pageopacity="0"
     inkscape:pageshadow="2"
     inkscape:zoom="11.313709"
     inkscape:cx="18.057526"
     inkscape:cy="29.81351"
     inkscape:document-units="px"
     inkscape:current-layer="g4344"
     showgrid="true"
     inkscape:snap-bbox="true"
     inkscape:bbox-paths="true"
     inkscape:bbox-nodes="true"
     inkscape:snap-bbox-edge-midpoints="true"
     inkscape:snap-bbox-midpoints="true"
     inkscape:object-paths="true"
     inkscape:snap-intersection-paths="true"
     inkscape:object-nodes="true"
     inkscape:snap-smooth-nodes="true"
     inkscape:snap-midpoints="true"
     inkscape:snap-object-midpoints="true"
     inkscape:snap-center="true"
     showguides="true"
     inkscape:guide-bbox="true"
     inkscape:window-width="1920"
     inkscape:window-height="1023"
     inkscape:window-x="-10"
     inkscape:window-y="35"
     inkscape:window-maximized="1"
     inkscape:snap-global="true"
     fit-margin-top="0"
     fit-margin-left="0"
     fit-margin-right="0"
     fit-margin-bottom="0"
     showborder="true"
     inkscape:showpageshadow="false"
     inkscape:snap-page="true">
    <inkscape:grid
       type="xygrid"
       id="grid3075"
       empspacing="5"
       visible="true"
       enabled="true"
       snapvisiblegridlinesonly="true"
       originx="1.6362304e-08px"
       originy="18px" />
  </sodipodi:namedview>
  <defs
     id="defs13096" />
  <metadata
     id="metadata13099">
    <rdf:RDF>
      <cc:Work
         rdf:about="">
        <dc:format>image/svg+xml</dc:format>
        <dc:type
           rdf:resource="http://purl.org/dc/dcmitype/StillImage" />
        <dc:title></dc:title>
      </cc:Work>
    </rdf:RDF>
  </metadata>
  <path
     inkscape:connector-curvature="0"
     style="color:#000000;fill:#c1582e;fill-opacity:1;fill-rule:nonzero;stroke:none;stroke-width:2.28571415;marker:none;visibility:visible;display:inline;overflow:visible;enable-background:accumulate"
     d="m 0,4 0,30 0,28 2,2 30,0 30,0 2,-2 L 64,34 64,4 32,4 0,4 z"
     id="path4095" />
  <path
     inkscape:connector-curvature="0"
     style="color:#000000;fill:#e8854d;fill-opacity:1;fill-rule:nonzero;stroke:none;stroke-width:2.28571415;marker:none;visibility:visible;display:inline;overflow:visible;enable-background:accumulate"
     d="M 2,0 0,1 0,4 32,4 64,4 64,1 62,0 32,0 2,0 z"
     id="path4090" />
  <g
     id="g3043"
     inkscape:export-filename="folder.png"
     inkscape:export-xdpi="90"
     inkscape:export-ydpi="90"
     transform="translate(-0.62500009,0.082283)" />
  <g
     id="scalable"
     transform="matrix(1.0385892,0,0,1.0385892,1214.7222,1878.8121)"
     inkscape:label="#g3701"
     style="fill:#ffffff" />
  <g
     id="g4276">
    <g
       style="opacity:1;fill:#000000;fill-opacity:0.11021507;stroke:none;stroke-width:1;stroke-linecap:butt;stroke-linejoin:miter;stroke-miterlimit:4;stroke-dasharray:none;stroke-dashoffset:0;stroke-opacity:1;marker:none"
       id="g4641" />
    <g
       style="opacity:1;fill:#000000;fill-opacity:0.11021507;stroke:none;stroke-width:1;stroke-linecap:butt;stroke-linejoin:miter;stroke-miterlimit:4;stroke-dasharray:none;stroke-dashoffset:0;stroke-opacity:1;marker:none"
       id="g4855">
      <path
         id="rect3838"
         d="M 19 4 L 19 13 L 0 13 L 0 14 L 9 14 L 9 23 L 0 23 L 0 24 L 9 24 L 10 24 L 19 24 L 19 33 L 0 33 L 0 34 L 9 34 L 9 43 L 0 43 L 0 44 L 9 44 L 10 44 L 19 44 L 19 53 L 0 53 L 0 54 L 9 54 L 9 63 L 1 63 L 2 64 L 9 64 L 32 64 L 49 64 L 62 64 L 63 63 L 50 63 L 50 54 L 59 54 L 60 54 L 64 54 L 64 53 L 60 53 L 60 44 L 64 44 L 64 43 L 50 43 L 50 34 L 59 34 L 60 34 L 64 34 L 64 33 L 60 33 L 60 24 L 64 24 L 64 23 L 50 23 L 50 14 L 59 14 L 60 14 L 64 14 L 64 13 L 60 13 L 60 4 L 59 4 L 59 13 L 40 13 L 40 4 L 39 4 L 39 13 L 20 13 L 20 4 L 19 4 z M 10 14 L 19 14 L 20 14 L 29 14 L 29 23 L 10 23 L 10 14 z M 30 14 L 39 14 L 40 14 L 49 14 L 49 23 L 30 23 L 30 14 z M 20 24 L 29 24 L 30 24 L 39 24 L 39 33 L 20 33 L 20 24 z M 40 24 L 49 24 L 50 24 L 59 24 L 59 33 L 40 33 L 40 24 z M 10 34 L 19 34 L 20 34 L 29 34 L 29 43 L 10 43 L 10 34 z M 30 34 L 39 34 L 40 34 L 49 34 L 49 43 L 30 43 L 30 34 z M 20 44 L 29 44 L 30 44 L 39 44 L 39 53 L 20 53 L 20 44 z M 40 44 L 49 44 L 50 44 L 59 44 L 59 53 L 40 53 L 40 44 z M 10 54 L 19 54 L 20 54 L 29 54 L 29 63 L 10 63 L 10 54 z M 30 54 L 39 54 L 40 54 L 49 54 L 49 63 L 30 63 L 30 54 z "
         style="color:#000000;fill:#000000;fill-opacity:0.11806798;fill-rule:nonzero;stroke:none;stroke-width:1;marker:none;visibility:visible;display:inline;overflow:visible;enable-background:accumulate;stroke-linecap:butt;stroke-linejoin:miter;stroke-miterlimit:4;stroke-dasharray:none;stroke-dashoffset:0;stroke-opacity:1" />
    </g>
  </g>
  <path
     style="fill:#eb9463;fill-opacity:1;fill-rule:nonzero"
     d="M 0,3 0,6 2,4 Z"
     id="path4298"
     inkscape:connector-curvature="0"
     sodipodi:nodetypes="cccc" />
  <path
     d="M 64,6 62,4 64,3 z"
     id="path3028"
     style="fill:#d56f3e;fill-opacity:1"
     inkscape:connector-curvature="0" />
  <g
     id="g4344">
    <g
       id="g4522"
       style="fill:#601b00;fill-opacity:0.12880144">
      <path
         id="path4516"
         d="m 36,17 c -4.431637,2.660013 -11.328313,4.224453 -20,5 1.136583,13.998395 5.5215,30.175668 20,38 C 50.4785,52.175668 54.863417,35.998395 56,22 47.328313,21.224453 40.431637,19.660013 36,17 z"
         style="color:#000000;fill:#601b00;fill-opacity:0.12880144;fill-rule:nonzero;stroke:none;stroke-width:1;marker:none;visibility:visible;display:inline;overflow:visible;enable-background:accumulate"
         inkscape:connector-curvature="0" />
    </g>
    <path
       inkscape:connector-curvature="0"
       style="color:#000000;fill:#c3b7b7;fill-opacity:1;fill-rule:nonzero;stroke:none;stroke-width:1;marker:none;visibility:visible;display:inline;overflow:visible;enable-background:accumulate"
       d="m 32,13 c -4.431637,2.660013 -11.328313,4.224453 -20,5 1.136583,13.998395 5.5215,30.175668 20,38 C 46.4785,48.175668 50.863417,31.998395 52,18 43.328313,17.224453 36.431637,15.660013 32,13 z"
       id="path4514" />
    <path
       id="path4495"
       d="m 34.3125,14.15625 -21.21875,12.25 c 0.577926,3.123096 1.392692,6.253889 2.46875,9.28125 l 31.59375,-18.25 C 42.014867,16.729205 37.670597,15.657117 34.3125,14.15625 z M 51,25.90625 19.5,44.09375 c 1.632237,2.638565 3.620224,5.087906 5.96875,7.25 l 21.75,-12.5625 C 49.010982,34.660411 50.222958,30.275579 51,25.90625 z"
       style="color:#000000;fill:#e36d13;fill-opacity:1;fill-rule:nonzero;stroke:none;stroke-width:1;marker:none;visibility:visible;display:inline;overflow:visible;enable-background:accumulate"
       inkscape:connector-curvature="0" />
    <path
       style="color:#000000;fill:#ff9b22;fill-opacity:1;fill-rule:nonzero;stroke:none;stroke-width:1;marker:none;visibility:visible;display:inline;overflow:visible;enable-background:accumulate"
       d="M 32 15.5 L 13.09375 26.40625 C 13.671676 29.529346 14.486442 32.660139 15.5625 35.6875 L 32 26.1875 L 32 15.5 z M 32 36.875 L 19.5 44.09375 C 21.132237 46.732315 23.120224 49.181656 25.46875 51.34375 L 32 47.5625 L 32 36.875 z "
       id="path4491" />
    <path
       style="color:#000000;fill:#dfd7d7;fill-opacity:1;fill-rule:nonzero;stroke:none;stroke-width:1;marker:none;visibility:visible;display:inline;overflow:visible;enable-background:accumulate"
       d="M 32 13 C 27.568363 15.660013 20.671687 17.224453 12 18 C 12.222854 20.744722 12.569531 23.573383 13.09375 26.40625 L 32 15.5 L 32 13 z M 32 26.1875 L 15.5625 35.6875 C 16.604237 38.618303 17.863868 41.448889 19.5 44.09375 L 32 36.875 L 32 26.1875 z M 32 47.5625 L 25.46875 51.34375 C 27.378076 53.10151 29.542605 54.671998 32 56 L 32 47.5625 z "
       id="rect4340-7" />
  </g>
</svg>

<svg xmlns="http://www.w3.org/2000/svg" viewBox="0 0 64 64"><g color="#000"><path d="m0 4v30 28l2 2h30 30l2-2v-28-30h-32-32" fill="#c1582e"/><path d="m2 0l-2 1v3h32 32v-3l-2-1h-30-30" fill="#e8854d"/></g><g fill-opacity=".11"><path d="m19 4v9h-19v1h9v9h-9v1h9 1 9v9h-19v1h9v9h-9v1h9 1 9v9h-19v1h9v9h-8l1 1h7 23 17 13l1-1h-13v-9h9 1 4v-1h-4v-9h4v-1h-14v-9h9 1 4v-1h-4v-9h4v-1h-14v-9h9 1 4v-1h-4v-9h-1v9h-19v-9h-1v9h-19v-9h-1m-9 10h9 1 9v9h-19v-9m20 0h9 1 9v9h-19v-9m-10 10h9 1 9v9h-19v-9m20 0h9 1 9v9h-19v-9m-30 10h9 1 9v9h-19v-9m20 0h9 1 9v9h-19v-9m-10 10h9 1 9v9h-19v-9m20 0h9 1 9v9h-19v-9m-30 10h9 1 9v9h-19v-9m20 0h9 1 9v9h-19v-9" fill-opacity=".062" color="#000"/></g><g fill-opacity="1"><path d="m0 3v3l2-2" fill="#eb9463"/><path d="m64 6l-2-2 2-1z" fill="#d56f3e"/><g color="#000"><g fill="#d66334"><path d="m10 14h19v9h-19z"/><path d="m50 34h14v9h-14z"/><path d="m0 34h9v9h-9z"/><path d="m40 44h19v9h-19z"/><path d="m40 4h19v9h-19z"/><path d="m10 54h19v9h-19z"/></g><path d="m36 17c-4.432 2.66-11.328 4.224-20 5 1.137 13.998 5.522 30.18 20 38 14.478-7.824 18.863-24 20-38-8.672-.776-15.568-2.34-20-5" fill-opacity=".129" color="#000"/><path d="m32 13c-4.432 2.66-11.328 4.224-20 5 1.137 13.998 5.522 30.18 20 38 14.478-7.824 18.863-24 20-38-8.672-.776-15.568-2.34-20-5" fill="#dcd4d4"/><path d="m34.31 14.156l-21.22 12.25c.578 3.123 1.393 6.254 2.469 9.281l31.594-18.25c-5.141-.708-9.486-1.78-12.844-3.281m16.688 11.75l-31.5 18.19c1.632 2.639 3.62 5.088 5.969 7.25l21.75-12.563c1.792-4.121 3-8.506 3.781-12.875" fill="#ee8433"/><path d="m32 15.5l-18.906 10.906c.578 3.123 1.393 6.254 2.469 9.281l16.438-9.5v-10.688m0 21.375l-12.5 7.219c1.632 2.639 3.62 5.088 5.969 7.25l6.531-3.781v-10.688" fill="#ff9b22"/><path d="m32 13c-4.432 2.66-11.328 4.224-20 5 .223 2.745.57 5.573 1.094 8.406l18.906-10.906v-2.5m0 13.188l-16.438 9.5c1.042 2.931 2.301 5.761 3.938 8.406l12.5-7.219v-10.688m0 21.375l-6.531 3.781c1.909 1.758 4.074 3.328 6.531 4.656v-8.438" fill="#e9e4e4"/></g></g></svg>
